src/images/icons/arrowDown.svg

<svg width="10" height="12" viewBox="0 0 10 12" fill="none" xmlns="http://www.w3.org/2000/svg">
<path d="M5.75 1C5.75 0.585786 5.41421 0.25 5 0.25C4.58579 0.25 4.25 0.585786 4.25 1H5.75ZM5 11L4.48826 11.5483C4.77642 11.8172 5.22358 11.8172 5.51174 11.5483L5 11ZM9.26174 8.04829C9.56455 7.76567 9.58092 7.29107 9.29829 6.98826C9.01567 6.68545 8.54107 6.66908 8.23826 6.95171L9.26174 8.04829ZM1.76174 6.95171C1.45893 6.66908 0.984334 6.68545 0.701709 6.98826C0.419083 7.29107 0.435448 7.76567 0.738261 8.04829L1.76174 6.95171ZM4.25 1L4.25 11H5.75L5.75 1H4.25ZM5.51174 11.5483L9.26174 8.04829L8.23826 6.95171L4.48826 10.4517L5.51174 11.5483ZM5.51174 10.4517L1.76174 6.95171L0.738261 8.04829L4.48826 11.5483L5.51174 10.4517Z" fill="#F5F5FF"/>
</svg>

<svg xmlns="http://www.w3.org/2000/svg" width="10" height="12" fill="none"><path fill="#F5F5FF" d="M5.75 1a.75.75 0 0 0-1.5 0zM5 11l-.512.548a.75.75 0 0 0 1.024 0zm4.262-2.952a.75.75 0 1 0-1.024-1.096zm-7.5-1.096A.75.75 0 1 0 .738 8.048zM4.25 1v10h1.5V1zm1.262 10.548 3.75-3.5-1.024-1.096-3.75 3.5zm0-1.096-3.75-3.5L.738 8.048l3.75 3.5z"/></svg>
